app/dist/common/images/ningbo-deye-technology.svg

<svg height="18" viewBox="0 0 18 18" width="18" xmlns="http://www.w3.org/2000/svg"><path d="m0 0h18v18h-18z" fill="#f0f3fa"/><path d="m5.97 4h-1.92a.04.04 0 0 0 -.04.04v1.92c0 .02.01.04.04.04h1.92c.02 0 .04-.02.04-.04v-1.92a.04.04 0 0 0 -.04-.04z" fill="#b3090b"/><path d="m6 12h4.4c.92 0 1.93-.78 2.3-1.66a3.4 3.4 0 0 0 .13-2.37 2.93 2.93 0 0 0 -2.64-1.97h-3.18l-.01-.02v-1.92c0-.04 0-.06.05-.06h2.7a5.54 5.54 0 0 1 3.05.79c2.47 1.55 2.8 4.87 1.3 7.19a4.76 4.76 0 0 1 -2.88 1.88c-.41.1-.92.14-1.53.14h-5.65l-.04-.01v-6.99h2z" fill="#1a308b"/></svg>

<!-- by TradingView --><svg width="18" height="18" viewBox="0 0 18 18" xmlns="http://www.w3.org/2000/svg"><path fill="#F0F3FA" d="M0 0h18v18H0z"/><path d="M5.97 4H4.05a.04.04 0 0 0-.04.04v1.92c0 .02.01.04.04.04h1.92c.02 0 .04-.02.04-.04V4.04A.04.04 0 0 0 5.97 4Z" fill="#B3090B"/><path d="M6 12h4.4c.92 0 1.93-.78 2.3-1.66a3.4 3.4 0 0 0 .13-2.37A2.93 2.93 0 0 0 10.19 6H7.01L7 5.98V4.06C7 4.02 7 4 7.05 4h2.7a5.54 5.54 0 0 1 3.05.79c2.47 1.55 2.8 4.87 1.3 7.19a4.76 4.76 0 0 1-2.88 1.88c-.41.1-.92.14-1.53.14H4.04L4 13.99V7h2v5Z" fill="#1A308B"/></svg>
